X:840
T:O'Connor's Polka
T:The Hayden Fancy
S:Neil Davie, Green Tree Session
Z:Nigel Gatherer
M:2/4
L:1/8
K:G
D>E GB | D>E GB | AE ED/E/ | GE EG  |
D>E GB | D>E GB | AE FG    | AG G2 :|
dB BA/B/ | dB B>A | GE ED/E/ | GD D2  |
dB BA/B/ | dB B>A | GE FG    | AG G2 :|
